Newaita-dark/apps/64/libreoffice-impress.svg

<?xml version="1.0" encoding="UTF-8"?>
<svg xmlns="http://www.w3.org/2000/svg" xmlns:xlink="http://www.w3.org/1999/xlink" width="64px" height="64px" viewBox="0 0 64 64" version="1.1">
<defs>
<linearGradient id="linear0" gradientUnits="userSpaceOnUse" x1="254" y1="233.5" x2="254" y2="254.666672" gradientTransform="matrix(0.125012,0,0,0.125012,-0.00000763012,26.87757)">
<stop offset="0" style="stop-color:rgb(0%,0%,0%);stop-opacity:0.27451;"/>
<stop offset="1" style="stop-color:rgb(0%,0%,0%);stop-opacity:0;"/>
</linearGradient>
<radialGradient id="radial0" gradientUnits="userSpaceOnUse" cx="450.908936" cy="189.579361" fx="450.908936" fy="189.579361" r="21.166656" gradientTransform="matrix(0.000000348341,-0.156265,-0.281277,-0.000000203077,97.64609,127.190665)">
<stop offset="0" style="stop-color:rgb(0%,0%,0%);stop-opacity:0.313726;"/>
<stop offset="0.222222" style="stop-color:rgb(0%,0%,0%);stop-opacity:0.27451;"/>
<stop offset="1" style="stop-color:rgb(0%,0%,0%);stop-opacity:0;"/>
</radialGradient>
<radialGradient id="radial1" gradientUnits="userSpaceOnUse" cx="450.908936" cy="189.579361" fx="450.908936" fy="189.579361" r="21.166656" gradientTransform="matrix(-0.000000348341,0.156265,0.281277,0.000000203077,-35.463065,-15.054958)">
<stop offset="0" style="stop-color:rgb(0%,0%,0%);stop-opacity:0.313726;"/>
<stop offset="0.222222" style="stop-color:rgb(0%,0%,0%);stop-opacity:0.27451;"/>
<stop offset="1" style="stop-color:rgb(0%,0%,0%);stop-opacity:0;"/>
</radialGradient>
<radialGradient id="radial2" gradientUnits="userSpaceOnUse" cx="450.908936" cy="189.579361" fx="450.908936" fy="189.579361" r="21.166656" gradientTransform="matrix(-0.000000348341,-0.156265,0.281277,-0.000000203077,-35.463065,127.190665)">
<stop offset="0" style="stop-color:rgb(0%,0%,0%);stop-opacity:0.313726;"/>
<stop offset="0.222222" style="stop-color:rgb(0%,0%,0%);stop-opacity:0.27451;"/>
<stop offset="1" style="stop-color:rgb(0%,0%,0%);stop-opacity:0;"/>
</radialGradient>
<radialGradient id="radial3" gradientUnits="userSpaceOnUse" cx="450.908936" cy="189.579361" fx="450.908936" fy="189.579361" r="21.166656" gradientTransform="matrix(0.000000348341,0.156265,-0.281277,0.000000203077,97.646086,-15.054959)">
<stop offset="0" style="stop-color:rgb(0%,0%,0%);stop-opacity:0.313726;"/>
<stop offset="0.222222" style="stop-color:rgb(0%,0%,0%);stop-opacity:0.27451;"/>
<stop offset="1" style="stop-color:rgb(0%,0%,0%);stop-opacity:0;"/>
</radialGradient>
<linearGradient id="linear1" gradientUnits="userSpaceOnUse" x1="940" y1="1695.118164" x2="940" y2="175.118118" gradientTransform="matrix(0.0330761,0,0,0.0330761,0,0)">
<stop offset="0" style="stop-color:rgb(93.333334%,93.333334%,93.333334%);stop-opacity:1;"/>
<stop offset="1" style="stop-color:rgb(96.078432%,96.078432%,96.078432%);stop-opacity:1;"/>
</linearGradient>
<linearGradient id="linear2" gradientUnits="userSpaceOnUse" x1="940" y1="1695.118164" x2="940" y2="175.118118" gradientTransform="matrix(0.0330761,0,0,0.0330761,0,0)">
<stop offset="0" style="stop-color:rgb(100%,43.921569%,26.274511%);stop-opacity:1;"/>
<stop offset="1" style="stop-color:rgb(100%,54.11765%,39.607844%);stop-opacity:1;"/>
</linearGradient>
<linearGradient id="linear3" gradientUnits="userSpaceOnUse" x1="940" y1="1215.118164" x2="940" y2="615.118103" gradientTransform="matrix(0.0330761,0,0,0.0330761,0.000000031413,1.323103)">
<stop offset="0" style="stop-color:rgb(100%,43.921569%,26.274511%);stop-opacity:1;"/>
<stop offset="1" style="stop-color:rgb(100%,54.11765%,39.607844%);stop-opacity:1;"/>
</linearGradient>
</defs>
<g id="surface1">
<path style=" stroke:none;fill-rule:nonzero;fill:url(#linear0);" d="M 17.199219 56.066406 L 44.984375 56.066406 L 44.984375 58.714844 L 17.199219 58.714844 Z M 17.199219 56.066406 "/>
<path style=" stroke:none;fill-rule:nonzero;fill:url(#radial0);" d="M 44.984375 56.066406 L 50.277344 56.066406 L 50.277344 53.421875 L 44.984375 53.421875 Z M 44.984375 56.066406 "/>
<path style=" stroke:none;fill-rule:nonzero;fill:url(#radial1);" d="M 17.199219 56.066406 L 11.90625 56.066406 L 11.90625 58.714844 L 17.199219 58.714844 Z M 17.199219 56.066406 "/>
<path style=" stroke:none;fill-rule:nonzero;fill:url(#radial2);" d="M 17.199219 56.066406 L 11.90625 56.066406 L 11.90625 53.421875 L 17.199219 53.421875 Z M 17.199219 56.066406 "/>
<path style=" stroke:none;fill-rule:nonzero;fill:url(#radial3);" d="M 44.984375 56.066406 L 50.277344 56.066406 L 50.277344 58.714844 L 44.984375 58.714844 Z M 44.984375 56.066406 "/>
<path style=" stroke:none;fill-rule:nonzero;fill:url(#linear1);" d="M 14.554688 5.792969 C 13.085938 5.792969 11.90625 6.972656 11.90625 8.4375 L 11.90625 53.421875 C 11.90625 54.886719 13.085938 56.066406 14.554688 56.066406 L 47.628906 56.066406 C 49.09375 56.066406 50.277344 54.886719 50.277344 53.421875 L 50.277344 17.699219 L 38.367188 5.792969 Z M 41.015625 5.792969 L 50.277344 15.054688 L 50.277344 8.4375 C 50.277344 6.972656 49.09375 5.792969 47.628906 5.792969 Z M 41.015625 5.792969 "/>
<path style=" stroke:none;fill-rule:nonzero;fill:url(#linear2);" d="M 41.015625 5.792969 L 50.277344 15.054688 L 50.277344 8.4375 C 50.277344 6.972656 49.09375 5.792969 47.628906 5.792969 Z M 41.015625 5.792969 "/>
<path style=" stroke:none;fill-rule:nonzero;fill:rgb(100%,100%,100%);fill-opacity:0.392157;" d="M 14.554688 5.792969 C 13.085938 5.792969 11.90625 6.972656 11.90625 8.4375 L 11.90625 9.101562 C 11.90625 7.632812 13.085938 6.453125 14.554688 6.453125 L 38.367188 6.453125 L 50.277344 18.359375 L 50.277344 17.699219 L 38.367188 5.792969 Z M 41.015625 5.792969 L 41.675781 6.453125 L 47.628906 6.453125 C 49.09375 6.453125 50.277344 7.632812 50.277344 9.101562 L 50.277344 8.4375 C 50.277344 6.972656 49.09375 5.792969 47.628906 5.792969 Z M 41.015625 5.792969 "/>
<path style=" stroke:none;fill-rule:nonzero;fill:rgb(0%,0%,0%);fill-opacity:0.235294;" d="M 41.015625 5.792969 L 50.277344 15.054688 L 50.277344 14.070312 L 41.996094 5.792969 Z M 11.90625 52.441406 L 11.90625 53.421875 C 11.90625 54.886719 13.085938 56.066406 14.554688 56.066406 L 47.628906 56.066406 C 49.09375 56.066406 50.277344 54.886719 50.277344 53.421875 L 50.277344 52.441406 C 50.277344 53.90625 49.09375 55.085938 47.628906 55.085938 L 14.554688 55.085938 C 13.085938 55.085938 11.90625 53.90625 11.90625 52.441406 Z M 11.90625 52.441406 "/>
<path style=" stroke:none;fill-rule:nonzero;fill:rgb(12.941177%,12.941177%,12.941177%);fill-opacity:1;" d="M 14.554688 5.605469 C 12.988281 5.605469 11.71875 6.871094 11.71875 8.4375 L 11.71875 53.421875 C 11.71875 54.988281 12.988281 56.253906 14.554688 56.253906 L 47.628906 56.253906 C 49.195312 56.253906 50.464844 54.988281 50.464844 53.421875 L 50.464844 17.699219 C 50.464844 17.648438 50.445312 17.601562 50.410156 17.566406 L 38.5 5.660156 C 38.464844 5.625 38.417969 5.605469 38.367188 5.605469 Z M 41.015625 5.605469 C 40.9375 5.605469 40.871094 5.648438 40.839844 5.71875 C 40.8125 5.789062 40.828125 5.871094 40.882812 5.925781 L 50.144531 15.1875 C 50.195312 15.238281 50.277344 15.253906 50.347656 15.226562 C 50.417969 15.199219 50.464844 15.128906 50.464844 15.054688 L 50.464844 8.4375 C 50.464844 6.871094 49.195312 5.605469 47.628906 5.605469 Z M 14.554688 5.980469 L 38.289062 5.980469 L 50.089844 17.777344 L 50.089844 53.421875 C 50.089844 54.785156 48.996094 55.878906 47.628906 55.878906 L 14.554688 55.878906 C 13.1875 55.878906 12.09375 54.785156 12.09375 53.421875 L 12.09375 8.4375 C 12.09375 7.074219 13.1875 5.980469 14.554688 5.980469 Z M 41.46875 5.980469 L 47.628906 5.980469 C 48.996094 5.980469 50.089844 7.074219 50.089844 8.4375 L 50.089844 14.601562 Z M 41.46875 5.980469 "/>
<path style=" stroke:none;fill-rule:nonzero;fill:url(#linear3);" d="M 33.738281 19.023438 L 33.738281 28.945312 L 43.660156 28.945312 C 43.660156 23.449219 39.234375 19.023438 33.738281 19.023438 Z M 31.089844 21.667969 C 25.59375 21.667969 21.167969 26.09375 21.167969 31.589844 C 21.167969 37.089844 25.59375 41.515625 31.089844 41.515625 C 36.589844 41.515625 41.015625 37.089844 41.015625 31.589844 L 31.089844 31.589844 Z M 31.089844 21.667969 "/>
<path style=" stroke:none;fill-rule:nonzero;fill:rgb(100%,100%,100%);fill-opacity:0.392157;" d="M 33.738281 19.023438 L 33.738281 19.683594 C 39.011719 19.683594 43.300781 23.757812 43.636719 28.945312 L 43.660156 28.945312 C 43.660156 23.449219 39.234375 19.023438 33.738281 19.023438 Z M 31.089844 21.667969 C 25.59375 21.667969 21.167969 26.09375 21.167969 31.589844 C 21.167969 31.703125 21.171875 31.8125 21.175781 31.921875 C 21.347656 26.578125 25.703125 22.332031 31.089844 22.332031 Z M 31.089844 31.589844 L 31.089844 32.253906 L 40.992188 32.253906 C 41.007812 32.035156 41.015625 31.8125 41.015625 31.589844 Z M 31.089844 31.589844 "/>
<path style=" stroke:none;fill-rule:nonzero;fill:rgb(0%,0%,0%);fill-opacity:0.235294;" d="M 33.738281 28.945312 L 33.738281 29.9375 L 43.660156 29.9375 C 43.660156 29.601562 43.644531 29.273438 43.613281 28.945312 Z M 21.179688 32.085938 C 21.171875 32.253906 21.167969 32.417969 21.167969 32.582031 C 21.167969 38.082031 25.59375 42.507812 31.089844 42.507812 C 36.589844 42.507812 41.015625 38.082031 41.015625 32.582031 L 40.964844 32.582031 C 40.472656 37.613281 36.253906 41.515625 31.089844 41.515625 C 25.761719 41.515625 21.4375 37.351562 21.179688 32.085938 Z M 21.179688 32.085938 "/>
<path style="fill:none;stroke-width:3;stroke-linecap:round;stroke-linejoin:round;stroke:rgb(12.941177%,12.941177%,12.941177%);stroke-opacity:1;stroke-miterlimit:4;" d="M 269.880478 -62.827032 L 269.880478 16.540389 L 349.247898 16.540389 C 349.247898 -27.424163 313.845029 -62.827032 269.880478 -62.827032 Z M 248.695001 -41.672802 C 204.730449 -41.672802 169.32758 -6.269933 169.32758 37.694619 C 169.32758 81.690417 204.730449 117.093287 248.695001 117.093287 C 292.690799 117.093287 328.093669 81.690417 328.093669 37.694619 L 248.695001 37.694619 Z M 248.695001 -41.672802 " transform="matrix(0.125012,0,0,0.125012,0,26.877566)"/>
</g>
</svg>

<svg xmlns="http://www.w3.org/2000/svg" xmlns:xlink="http://www.w3.org/1999/xlink" width="64pt" height="64pt" viewBox="0 0 64 64"><defs><linearGradient id="i" gradientUnits="userSpaceOnUse" x1="254" y1="233.5" x2="254" y2="254.667" gradientTransform="translate(0 26.878) scale(.12501)"><stop offset="0" stop-opacity=".275"/><stop offset="1" stop-opacity="0"/></linearGradient><radialGradient id="j" gradientUnits="userSpaceOnUse" cx="450.909" cy="189.579" fx="450.909" fy="189.579" r="21.167" gradientTransform="matrix(0 -.15626 -.28128 0 97.646 127.19)"><stop offset="0" stop-opacity=".314"/><stop offset=".222" stop-opacity=".275"/><stop offset="1" stop-opacity="0"/></radialGradient><radialGradient id="k" gradientUnits="userSpaceOnUse" cx="450.909" cy="189.579" fx="450.909" fy="189.579" r="21.167" gradientTransform="matrix(0 .15626 .28128 0 -35.463 -15.055)"><stop offset="0" stop-opacity=".314"/><stop offset=".222" stop-opacity=".275"/><stop offset="1" stop-opacity="0"/></radialGradient><radialGradient id="l" gradientUnits="userSpaceOnUse" cx="450.909" cy="189.579" fx="450.909" fy="189.579" r="21.167" gradientTransform="matrix(0 -.15626 .28128 0 -35.463 127.19)"><stop offset="0" stop-opacity=".314"/><stop offset=".222" stop-opacity=".275"/><stop offset="1" stop-opacity="0"/></radialGradient><radialGradient id="m" gradientUnits="userSpaceOnUse" cx="450.909" cy="189.579" fx="450.909" fy="189.579" r="21.167" gradientTransform="matrix(0 .15626 -.28128 0 97.646 -15.055)"><stop offset="0" stop-opacity=".314"/><stop offset=".222" stop-opacity=".275"/><stop offset="1" stop-opacity="0"/></radialGradient><filter id="a" filterUnits="objectBoundingBox" x="0%" y="0%" width="100%" height="100%"><feColorMatrix in="SourceGraphic" values="0 0 0 0 1 0 0 0 0 1 0 0 0 0 1 0 0 0 1 0"/></filter><mask id="o"><path fill-opacity=".988" d="M0 0h64v64H0z" filter="url(#a)"/></mask><linearGradient id="c" gradientUnits="userSpaceOnUse" x1="940" y1="1695.118" x2="940" y2="175.118" gradientTransform="scale(.03308)"><stop offset="0" stop-color="#eee"/><stop offset="1" stop-color="#f5f5f5"/></linearGradient><clipPath id="b"><path d="M0 0h64v64H0z"/></clipPath><g id="n" clip-path="url(#b)"><path d="M14.555 5.793a2.64 2.64 0 0 0-2.649 2.644v44.985a2.64 2.64 0 0 0 2.649 2.644h33.074a2.642 2.642 0 0 0 2.648-2.644V17.699L38.367 5.793zm26.46 0l9.262 9.262V8.438a2.642 2.642 0 0 0-2.648-2.645zm0 0" fill="url(#c)"/></g><mask id="q"><path fill-opacity=".988" d="M0 0h64v64H0z" filter="url(#a)"/></mask><linearGradient id="e" gradientUnits="userSpaceOnUse" x1="940" y1="1695.118" x2="940" y2="175.118" gradientTransform="scale(.03308)"><stop offset="0" stop-color="#ff7043"/><stop offset="1" stop-color="#ff8a65"/></linearGradient><clipPath id="d"><path d="M0 0h64v64H0z"/></clipPath><g id="p" clip-path="url(#d)"><path d="M41.016 5.793l9.261 9.262V8.438a2.642 2.642 0 0 0-2.648-2.645zm0 0" fill="url(#e)"/></g><mask id="s"><path fill-opacity=".988" d="M0 0h64v64H0z" filter="url(#a)"/></mask><clipPath id="f"><path d="M0 0h64v64H0z"/></clipPath><g id="r" clip-path="url(#f)"><path d="M14.555 5.793a2.64 2.64 0 0 0-2.649 2.644v.665a2.64 2.64 0 0 1 2.649-2.649h23.812l11.91 11.906v-.66L38.367 5.793zm26.46 0l.66.66h5.954a2.643 2.643 0 0 1 2.648 2.649v-.665a2.642 2.642 0 0 0-2.648-2.644zm0 0" fill="#fff" fill-opacity=".392"/></g><mask id="u"><path fill-opacity=".988" d="M0 0h64v64H0z" filter="url(#a)"/></mask><clipPath id="g"><path d="M0 0h64v64H0z"/></clipPath><g id="t" clip-path="url(#g)"><path d="M41.016 5.793l9.261 9.262v-.985l-8.28-8.277zm-29.11 46.648v.98a2.64 2.64 0 0 0 2.649 2.645h33.074a2.642 2.642 0 0 0 2.648-2.644v-.98a2.642 2.642 0 0 1-2.648 2.644H14.555a2.64 2.64 0 0 1-2.649-2.645zm0 0" fill-opacity=".235"/></g><mask id="w"><path fill-opacity=".988" d="M0 0h64v64H0z" filter="url(#a)"/></mask><clipPath id="h"><path d="M0 0h64v64H0z"/></clipPath><g id="v" clip-path="url(#h)"><path d="M14.555 5.605a2.832 2.832 0 0 0-2.836 2.832v44.985a2.832 2.832 0 0 0 2.836 2.832h33.074a2.832 2.832 0 0 0 2.836-2.832V17.699c0-.05-.02-.097-.055-.133L38.5 5.66a.186.186 0 0 0-.133-.055zm26.46 0a.188.188 0 0 0-.175.114.194.194 0 0 0 .043.207l9.262 9.261c.05.051.132.067.203.04a.187.187 0 0 0 .117-.172V8.438a2.832 2.832 0 0 0-2.836-2.833zm-26.46.375h23.734l11.8 11.797v35.645a2.45 2.45 0 0 1-2.46 2.457H14.555a2.45 2.45 0 0 1-2.461-2.457V8.438a2.45 2.45 0 0 1 2.46-2.458zm26.914 0h6.16a2.45 2.45 0 0 1 2.46 2.457v6.165zm0 0" fill="#212121"/></g><linearGradient id="x" gradientUnits="userSpaceOnUse" x1="940" y1="1215.118" x2="940" y2="615.118" gradientTransform="matrix(.26458 0 0 .26458 0 -215)"><stop offset="0" stop-color="#ff7043"/><stop offset="1" stop-color="#ff8a65"/></linearGradient><linearGradient id="y" gradientUnits="userSpaceOnUse" x1="296.333" y1="106.5" x2="296.333" y2="-62.833" gradientTransform="translate(10.583 -10.583)"><stop offset="0" stop-color="#ff7043"/><stop offset="1" stop-color="#ff8a65"/></linearGradient></defs><path d="M17.2 56.066h27.784v2.649H17.2zm0 0" fill="url(#i)"/><path d="M44.984 56.066h5.293v-2.644h-5.293zm0 0" fill="url(#j)"/><path d="M17.2 56.066h-5.294v2.649H17.2zm0 0" fill="url(#k)"/><path d="M17.2 56.066h-5.294v-2.644H17.2zm0 0" fill="url(#l)"/><path d="M44.984 56.066h5.293v2.649h-5.293zm0 0" fill="url(#m)"/><use xlink:href="#n" mask="url(#o)"/><use xlink:href="#p" mask="url(#q)"/><use xlink:href="#r" mask="url(#s)"/><use xlink:href="#t" mask="url(#u)"/><use xlink:href="#v" mask="url(#w)"/><path d="M248.695-52.266c-43.965 0-79.367 35.403-79.367 79.4 0 43.964 35.402 79.367 79.367 79.367 43.996 0 79.399-35.403 79.399-79.368h-79.399zm0 0" transform="translate(0 26.878) scale(.12501)" fill="url(#x)" stroke-width="3" stroke-linecap="round" stroke-linejoin="round" stroke="#212121"/><path d="M269.88-73.42V5.948h79.368c0-43.965-35.403-79.368-79.368-79.368zm0 0" transform="translate(0 26.878) scale(.12501)" fill="url(#y)" stroke-width="3" stroke-linecap="round" stroke-linejoin="round" stroke="#212121"/></svg>
